outputs/icons/file/grid_view_round.svg

<svg xmlns="http://www.w3.org/2000/svg" width="1200" height="1200" fill="none"><g fill="#000" clip-path="url(#a)"><path d="M450 550H250c-55 0-100-45-100-100V250c0-55 45-100 100-100h200c55 0 100 45 100 100v200c0 55-45 100-100 100M450 1050H250c-55 0-100-45-100-100V750c0-55 45-100 100-100h200c55 0 100 45 100 100v200c0 55-45 100-100 100M650 250v200c0 55 45 100 100 100h200c55 0 100-45 100-100V250c0-55-45-100-100-100H750c-55 0-100 45-100 100M950 1050H750c-55 0-100-45-100-100V750c0-55 45-100 100-100h200c55 0 100 45 100 100v200c0 55-45 100-100 100"/></g><defs><clipPath id="a"><path fill="#fff" d="M0 0h1200v1200H0z"/></clipPath></defs></svg>

<svg width="1200" height="1200" viewBox="0 0 1200 1200" fill="none" xmlns="http://www.w3.org/2000/svg"><g clip-path="url(#clip0_238_2798)"><path d="M450 550H250C195 550 150 505 150 450V250C150 195 195 150 250 150H450C505 150 550 195 550 250V450C550 505 505 550 450 550Z" fill="black"/><path d="M450 1050H250C195 1050 150 1005 150 950V750C150 695 195 650 250 650H450C505 650 550 695 550 750V950C550 1005 505 1050 450 1050Z" fill="black"/><path d="M650 250V450C650 505 695 550 750 550H950C1005 550 1050 505 1050 450V250C1050 195 1005 150 950 150H750C695 150 650 195 650 250Z" fill="black"/><path d="M950 1050H750C695 1050 650 1005 650 950V750C650 695 695 650 750 650H950C1005 650 1050 695 1050 750V950C1050 1005 1005 1050 950 1050Z" fill="black"/></g><defs><clipPath id="clip0_238_2798"><path width="24" fill="white" d="M0 0H1200V1200H0V0z"/></clipPath></defs></svg>
